!!!OTL: 522b. Jm Wald bei der Amsel.
!!!ODT: 1880
!!!ARE: Europa, Mitteleuropa, Deutschland, Hessen, Odenwald
!!!SCT: E0522B
!!!TXL: @@DE
!!!YEM: Copyright 1995, estate of Helmut Schaffrath.
**kern	**text
*ICvox	*
!! Mixed meters:  2/4; 3/4
*M2/4	*
*k[b-]	*
*F:	*
=1	=1
!LO:TX:a:t=Langsam.	!
!LO:TX:a:t=Aus dem Odenwald. 1880.	!
{8f	Geſtern
8g	.
8a	A-
8a	-bend
=2	=2
8a	in
8cc	der
16ffL	ſtil-
16ccJ	.
8a	-len
=3	=3
(4a	Ruh,
4g)}	.
=4	=4
{8g	hört
8f	ich
8e	in
8f	dem
=5	=5
8g	Wald
16g	ei-
16a	-ner
16ccL	Am-
16b-J	.
8g	-ſel
=6	=6
(4g	ʒu.
4f)}	.
=7	=7
*M3/4	*
{8cc	Als
16aL	ich
16b-J	.
8cc	da
16aL	ſo
16b-J	.
4cc	ſaß,
=8	=8
8b-	mei-
16gL	-ner
16aJ	.
8b-	ganʒ
16gL	ver-
16aJ	.
8.b-;	-gaß,
16cc}	da
=9	=9
*M2/4	*
{8.a	kam
16a	die
8a	Am-
8a	-ſel,
=10	=10
8a	ſchmei-
8cc	-chelt
16ffL	ſich
16ccJ	.
8a	an
=11	=11
*M3/4	*
(4a	mich,
8g)}	.
{8a	und
16ccL	küß-
16b-J	.
8g	-te
=12	=12
*M2/4	*
(4g	mich.
4f)}	.
==	==
!!!AGN: Liebes - Lied
!!!ONB: ESAC (Essen Associative Code) Database: ERK1
!!!AMT: irregular
!!!AIN: vox
!!!EED: Helmut Schaffrath
!!!EEV: 1.0
!!!GTL: Liebeslieder [Neuere (aus dem 18. bis 19. Jahrh.) - Liebeslust]
!!!URL-scan: https://rosdok.uni-rostock.de/mcrviewer/recordIdentifier/rosdok_ppn745177662/iview2/phys_0348.iview2?x=-4.404412318551749&y=729.8955144223291&scale=0.6456904138606623&rotation=0&layout=singlePageLayout
!!!ENC: Anna Maria Matuszewska
!!!EEV: 2024/10/12
*-	*-
